!!!COM: Scriabin, Alexander
!!!OTL@@FR: Prélude
!!!OTL@@EN: Prelude
!!!OPR@@FR: 2 Préludes
!!!OPR@@EN: 2 Preludes
!!!OPS: 27
!!!ONM: 2
!!!ODT: 1901
!!!AGN: Prelude
**kern	**kern	**dynam
*staff2	*staff1	*staff1/2
*Ipiano	*Ipiano	*
*clefF4	*clefG2	*
*k[f#c#g#d#a#]	*k[f#c#g#d#a#]	*
*B:	*B:	*
*M3/4	*M3/4	*
=1	=1	=1
*	*^	*
*	*	*^	*
4.D#	4raa	2.f#	2.B\	.
.	4.a#	.	.	.
8C##X	.	.	.	.
8EL	.	.	.	.
8D#J	8a#	.	.	.
=2	=2	=2	=2	=2
8D#L	4a#	4e	4B\	.
8C#J	.	.	.	.
8BL	8g#L	[2g#	[2e\	.
8A#J	8a#	.	.	.
[4G#	8cc#	.	.	.
.	8bJ	.	.	.
=3	=3	=3	=3	=3
8G#L]	4dd#	4g#]	4e\]	.
8G#	.	.	.	.
8e	8cc#L	2b	2g#\	.
8d#	8dd#	.	.	.
8c#	12ff#	.	.	.
.	12.ee	.	.	.
8G#J	.	.	.	.
.	24bJk	.	.	.
=4	=4	=4	=4	=4
8BL	8dd#L	4g#	4e\	.
8A#	8cc#	.	.	.
8G#	8b	4e	4c#\	.
8F#J	8a#	.	.	.
[4E	8g#	4c#	8B\L	.
.	8f#J	.	8A#\J	.
=5	=5	=5	=5	=5
4E]	4raa	2.f#	2.B\	.
8D#L	4.a#	.	.	.
8C##X	.	.	.	.
8E	.	.	.	.
8D#J	8a#	.	.	.
=6	=6	=6	=6	=6
8D#L	4a#	4e	4B\	.
8C#	.	.	.	.
8B	8g#L	[2g#	[2e\	.
8A#J	8a#	.	.	.
[4G#	8cc#	.	.	.
.	8bJ	.	.	.
=7	=7	=7	=7	=7
8G#L]	4dd#	4g#]	4e\]	.
8G#	.	.	.	.
8e	8cc#L	4b	4g#\	.
8d#J	8dd#	.	.	.
[4c#	8ff#X	4a#	4f##X\	.
.	8eeJ	.	.	.
*	*	*v	*v	*
=8	=8	=8	=8
8c#L]	2dd#	2g#	.
8B	.	.	.
8B	.	.	.
8A#	.	.	.
8A#	4b	4d#	.
8G#J	.	.	.
=9	=9	=9	=9
*	*	*^	*
8G#L	2a#	2.e#X	2.c##X\	.
8A#	.	.	.	.
8G#	.	.	.	.
8AA#	.	.	.	.
8.G#	4a#	.	.	.
16G#Jk	.	.	.	.
=10	=10	=10	=10	=10
12G#L	2.a#	2.en	2.c#X\	.
12A#	.	.	.	.
12G#J	.	.	.	.
8F##XL	.	.	.	.
8F#X	.	.	.	.
8G#	.	.	.	.
8F##XJ	.	.	.	.
=11	=11	=11	=11	=11
8F#XL	2a#	2.d#	2.B#X\	.
8G#	.	.	.	.
8F#	.	.	.	.
8GG#	.	.	.	.
8.F#	4a#	.	.	.
16F#Jk	.	.	.	.
=12	=12	=12	=12	=12
12F#L	2a#	[2.dn	2.Bn\	.
12G#	.	.	.	.
12F#J	.	.	.	.
8E#XL	.	.	.	.
8En	.	.	.	.
8F#	4g#	.	.	.
8E#XJ	.	.	.	.
=13	=13	=13	=13	=13
8EnL	2f#	4d]	2A#\	.
8F#	.	.	.	.
8E	.	4d#X	.	.
8FF#	.	.	.	.
8.E	4f#	4c#	4A#\	.
16EJk	.	.	.	.
=14	=14	=14	=14	=14
8EL	2f#	2.f#	2.B\	.
8F#	.	.	.	.
8E	.	.	.	.
8FF#	.	.	.	.
8.D#	4g#	.	.	.
16D#Jk	.	.	.	.
=15	=15	=15	=15	=15
8D#L	2g#	2.e	2B\	.
8E	.	.	.	.
8D#	.	.	.	.
8FF#	.	.	.	.
8.C#	4a#	.	4A#\	.
16C#Jk	.	.	.	.
=16	=16	=16	=16	=16
8C#L	2a#	2.d#	2.F#\	.
8D#	.	.	.	.
8C#	.	.	.	.
8FF#	.	.	.	.
8BB	[4a#	.	.	.
8AA#J	.	.	.	.
=17	=17	=17	=17	=17
4.GG#	8a#L]	2d#	4G#\	.
.	8b	.	.	.
.	8.g#	.	4B\	.
8GG#	.	.	.	.
.	16d#Jk	.	.	.
12GG#L	[4f#	[4d#	4d#\	.
12FF##X	.	.	.	.
12GG#J	.	.	.	.
=18	=18	=18	=18	=18
4.C#	8f#L]	8d#L]	4B\	.
.	8g#J	8eJ	.	.
.	12f#L	2B	2G#\	.
.	12.e	.	.	.
8C#	.	.	.	.
.	24BJk	.	.	.
*	*clefF4	*	*	*
12C#L	[4d#	.	.	.
12D#	.	.	.	.
12C#J	.	.	.	.
=19	=19	=19	=19	=19
[2.FF#	8d#L]	2.G#	2.E\	.
.	8e	.	.	.
.	12d#	.	.	.
.	12.c#	.	.	.
.	24G#Jk	.	.	.
.	[4B	.	.	.
=20	=20	=20	=20	=20
2.BBB 2.FF#] 2.BB	8.BL]	4F#	4E\	.
.	16c#Jk	.	.	.
.	2d#	2F# 2B	2D#\	.
*	*v	*v	*v	*
==	==	==
*-	*-	*-
!!!system-decoration: {(*)}
!!!ENC: Bryan Jacob Bell
!!!END: November 2021 to April 2022
!!!PED: Günter Philipp
!!!PTL: Ausgewählte Klavierwerke (Edition Peters)
